neru-light-classic/32x32/apps/blockout.svg

<?xml version="1.0" encoding="UTF-8" standalone="no"?>
<svg
   xmlns:dc="http://purl.org/dc/elements/1.1/"
   xmlns:cc="http://creativecommons.org/ns#"
   xmlns:rdf="http://www.w3.org/1999/02/22-rdf-syntax-ns#"
   xmlns:svg="http://www.w3.org/2000/svg"
   xmlns="http://www.w3.org/2000/svg"
   xmlns:sodipodi="http://sodipodi.sourceforge.net/DTD/sodipodi-0.dtd"
   xmlns:inkscape="http://www.inkscape.org/namespaces/inkscape"
   height="32"
   width="32"
   version="1"
   id="svg38"
   sodipodi:docname="blockout.svg"
   inkscape:version="0.92.1 r">
  <metadata
     id="metadata44">
    <rdf:RDF>
      <cc:Work
         rdf:about="">
        <dc:format>image/svg+xml</dc:format>
        <dc:type
           rdf:resource="http://purl.org/dc/dcmitype/StillImage" />
      </cc:Work>
    </rdf:RDF>
  </metadata>
  <defs
     id="defs42" />
  <sodipodi:namedview
     pagecolor="#ffffff"
     bordercolor="#666666"
     borderopacity="1"
     objecttolerance="10"
     gridtolerance="10"
     guidetolerance="10"
     inkscape:pageopacity="0"
     inkscape:pageshadow="2"
     inkscape:window-width="1680"
     inkscape:window-height="963"
     id="namedview40"
     showgrid="false"
     inkscape:zoom="10.429825"
     inkscape:cx="-6.0216625"
     inkscape:cy="24.936787"
     inkscape:window-x="0"
     inkscape:window-y="0"
     inkscape:window-maximized="1"
     inkscape:current-layer="svg38" />
  <path
     style="opacity:1;fill:#20c931;fill-opacity:1;fill-rule:evenodd;stroke:none;stroke-width:1.03534329;stroke-linecap:round;stroke-linejoin:bevel;stroke-miterlimit:4;stroke-dasharray:none;stroke-dashoffset:0;stroke-opacity:1"
     d="M 1.8984375 20.787109 L 11.212891 20.787109 L 11.212891 11.212891 L 1.8984375 11.212891 L 1.8984375 20.787109 z "
     id="path4608" />
  <path
     style="opacity:1;fill:#3182c6;fill-opacity:1;fill-rule:evenodd;stroke:none;stroke-width:1.03534329;stroke-linecap:round;stroke-linejoin:bevel;stroke-miterlimit:4;stroke-dasharray:none;stroke-dashoffset:0;stroke-opacity:1"
     d="M 11.212891 20.787109 L 20.787109 20.787109 L 20.787109 11.212891 L 11.212891 11.212891 L 11.212891 20.787109 z "
     id="path4611" />
  <path
     style="opacity:1;fill:#278e33;fill-opacity:1;fill-rule:evenodd;stroke:none;stroke-width:1.03534329;stroke-linecap:round;stroke-linejoin:bevel;stroke-miterlimit:4;stroke-dasharray:none;stroke-dashoffset:0;stroke-opacity:1"
     d="M 20.787109 20.787109 L 20.787109 30.101562 L 24.527344 30.101562 C 27.615995 30.101563 30.101564 27.615995 30.101562 24.527344 L 30.101562 20.787109 L 20.787109 20.787109 z "
     id="path4622" />
  <path
     style="opacity:1;fill:#1e4f77;fill-opacity:1;fill-rule:evenodd;stroke:none;stroke-width:1.03534329;stroke-linecap:round;stroke-linejoin:bevel;stroke-miterlimit:4;stroke-dasharray:none;stroke-dashoffset:0;stroke-opacity:1"
     d="M 11.212891 20.787109 L 11.212891 30.101562 L 20.787109 30.101562 L 20.787109 20.787109 L 11.212891 20.787109 z "
     id="path4619" />
  <path
     style="opacity:1;fill:#278e33;fill-opacity:1;fill-rule:evenodd;stroke:none;stroke-width:1.03534329;stroke-linecap:round;stroke-linejoin:bevel;stroke-miterlimit:4;stroke-dasharray:none;stroke-dashoffset:0;stroke-opacity:1"
     d="M 11.212891 30.101562 L 11.212891 20.787109 L 1.8984375 20.787109 L 1.8984375 24.527344 C 1.8984375 27.615995 4.3840055 30.101564 7.4726562 30.101562 L 11.212891 30.101562 z "
     id="path4616" />
  <path
     style="opacity:1;fill:#20c931;fill-opacity:1;fill-rule:evenodd;stroke:none;stroke-width:1.03534329;stroke-linecap:round;stroke-linejoin:bevel;stroke-miterlimit:4;stroke-dasharray:none;stroke-dashoffset:0;stroke-opacity:1"
     d="M 30.101562 11.212891 L 20.787109 11.212891 L 20.787109 20.787109 L 30.101562 20.787109 L 30.101562 11.212891 z "
     id="path4614" />
  <path
     style="opacity:1;fill:#66fe76;fill-opacity:1;fill-rule:evenodd;stroke:none;stroke-width:1.03534329;stroke-linecap:round;stroke-linejoin:bevel;stroke-miterlimit:4;stroke-dasharray:none;stroke-dashoffset:0;stroke-opacity:1"
     d="M 20.787109 1.8984375 L 20.787109 11.212891 L 30.101562 11.212891 L 30.101562 7.4726562 C 30.101563 4.3840055 27.615995 1.8984375 24.527344 1.8984375 L 20.787109 1.8984375 z "
     id="path4605" />
  <path
     style="opacity:1;fill:#66b7fe;fill-opacity:1;fill-rule:evenodd;stroke:none;stroke-width:1.03534329;stroke-linecap:round;stroke-linejoin:bevel;stroke-miterlimit:4;stroke-dasharray:none;stroke-dashoffset:0;stroke-opacity:1"
     d="M 1.8984375 11.212891 L 11.212891 11.212891 L 11.212891 1.8984375 L 7.4726562 1.8984375 C 4.3840055 1.8984375 1.8984375 4.3840055 1.8984375 7.4726562 L 1.8984375 11.212891 z "
     id="path4602" />
  <path
     style="opacity:1;fill:#4799e2;fill-opacity:1;fill-rule:evenodd;stroke:none;stroke-width:1.03534329;stroke-linecap:round;stroke-linejoin:bevel;stroke-miterlimit:4;stroke-dasharray:none;stroke-dashoffset:0;stroke-opacity:1"
     d="M 11.212891 1.8984375 L 11.212891 11.212891 L 20.787109 11.212891 L 20.787109 1.8984375 L 11.212891 1.8984375 z "
     id="rect4497-3" />
  <polygon
     fill="#5a0e00"
     display="none"
     points="628.5 616 668 619.5 707 615 713 603 688.5 578 676.5 569.5 693.5 560.5 693.5 540 732.5 497.5 664 430.5 588 333 517.5 214 500 192 386 355 328 328 304 332.5 299.5 366 318.5 403.5 338 431 309.5 462 275.5 507 300 533 304 551 318.5 569.5 340.5 583 351.5 604.5 373.5 617 395 637.5 452.5 723 488.5 788.5 502 812.5 551.5 721.5 612.5 637"
     transform="matrix(.063142 0 0 .063142 -131 -24.03)"
     id="polygon2" />
</svg>

<svg xmlns="http://www.w3.org/2000/svg" height="32" width="32" version="1"><path d="M1.898 20.787h9.315v-9.574H1.898v9.574z" fill="#20c931" fill-rule="evenodd"/><path d="M11.213 20.787h9.574v-9.574h-9.574v9.574z" fill="#3182c6" fill-rule="evenodd"/><path d="M20.787 20.787v9.315h3.74a5.561 5.561 0 0 0 5.575-5.575v-3.74h-9.315z" fill="#278e33" fill-rule="evenodd"/><path d="M11.213 20.787v9.315h9.574v-9.315h-9.574z" fill="#1e4f77" fill-rule="evenodd"/><path d="M11.213 30.102v-9.315H1.898v3.74a5.561 5.561 0 0 0 5.575 5.575h3.74z" fill="#278e33" fill-rule="evenodd"/><path d="M30.102 11.213h-9.315v9.574h9.315v-9.574z" fill="#20c931" fill-rule="evenodd"/><path d="M20.787 1.898v9.315h9.315v-3.74a5.561 5.561 0 0 0-5.575-5.575h-3.74z" fill="#66fe76" fill-rule="evenodd"/><path d="M1.898 11.213h9.315V1.898h-3.74a5.561 5.561 0 0 0-5.575 5.575v3.74z" fill="#66b7fe" fill-rule="evenodd"/><path d="M11.213 1.898v9.315h9.574V1.898h-9.574z" fill="#4799e2" fill-rule="evenodd"/></svg>
